svg/device/alarm_2_fill.svg

<?xml version="1.0" encoding="UTF-8"?>
<svg width="24px" height="24px" viewBox="0 0 24 24" version="1.1" xmlns="http://www.w3.org/2000/svg" xmlns:xlink="http://www.w3.org/1999/xlink">
    <title>alarm_2_fill</title>
    <g id="页面-1" stroke="none" stroke-width="1" fill="none" fill-rule="evenodd">
        <g id="Device" transform="translate(-96.000000, -48.000000)" fill-rule="nonzero">
            <g id="alarm_2_fill" transform="translate(96.000000, 48.000000)">
                 <path d="M24,0 L24,24 L0,24 L0,0 L24,0 Z M12.5934901,23.257841 L12.5819402,23.2595131 L12.5108777,23.2950439 L12.4918791,23.2987469 L12.4918791,23.2987469 L12.4767152,23.2950439 L12.4056548,23.2595131 C12.3958229,23.2563662 12.3870493,23.2590235 12.3821421,23.2649074 L12.3780323,23.275831 L12.360941,23.7031097 L12.3658947,23.7234994 L12.3769048,23.7357139 L12.4804777,23.8096931 L12.4953491,23.8136134 L12.4953491,23.8136134 L12.5071152,23.8096931 L12.6106902,23.7357139 L12.6232938,23.7196733 L12.6232938,23.7196733 L12.6266527,23.7031097 L12.609561,23.275831 C12.6075724,23.2657013 12.6010112,23.2592993 12.5934901,23.257841 L12.5934901,23.257841 Z M12.8583906,23.1452862 L12.8445485,23.1473072 L12.6598443,23.2396597 L12.6498822,23.2499052 L12.6498822,23.2499052 L12.6471943,23.2611114 L12.6650943,23.6906389 L12.6699349,23.7034178 L12.6699349,23.7034178 L12.678386,23.7104931 L12.8793402,23.8032389 C12.8914285,23.8068999 12.9022333,23.8029875 12.9078286,23.7952264 L12.9118235,23.7811639 L12.8776777,23.1665331 C12.8752882,23.1545897 12.8674102,23.1470016 12.8583906,23.1452862 L12.8583906,23.1452862 Z M12.1430473,23.1473072 C12.1332178,23.1423925 12.1221763,23.1452606 12.1156365,23.1525954 L12.1099173,23.1665331 L12.0757714,23.7811639 C12.0751323,23.7926639 12.0828099,23.8018602 12.0926481,23.8045676 L12.108256,23.8032389 L12.3092106,23.7104931 L12.3186497,23.7024347 L12.3186497,23.7024347 L12.3225043,23.6906389 L12.340401,23.2611114 L12.337245,23.2485176 L12.337245,23.2485176 L12.3277531,23.2396597 L12.1430473,23.1473072 Z" id="MingCute" fill-rule="nonzero"></path>
                <path d="M12,4 C16.9706,4 21,8.02944 21,13 C21,17.9706 16.9706,22 12,22 C7.02944,22 3,17.9706 3,13 C3,8.02944 7.02944,4 12,4 Z M12.0001,8 C11.48725,8 11.0645908,8.38604429 11.0068275,8.88337975 L11.0001,9 L11.0001,12.9863 C10.9971833,13.2033833 11.064475,13.4212306 11.201975,13.6028046 L11.2929,13.7071 L13.3983,15.8125 C13.7889,16.2031 14.422,16.2031 14.8125,15.8125 C15.1730538,15.4520385 15.2007888,14.8848645 14.8957047,14.4925224 L14.8125,14.3983 L13.0001,12.5859 L13.0001,9 C13.0001,8.44772 12.5524,8 12.0001,8 Z M18.0008,2.606 C19.252,3.3298 20.3599,4.27272 21.2724,5.38217 C21.6232,5.80873 21.5618,6.43891 21.1352,6.78972 C20.7087,7.14054 20.0785,7.07914 19.7277,6.65258 C18.9663,5.72685 18.0421,4.94042 16.9993,4.33721 C16.5212,4.06066 16.3579,3.44894 16.6344,2.97088 C16.911,2.49281 17.5227,2.32945 18.0008,2.606 Z M7.36563,2.97088 C7.64218,3.44894 7.47882,4.06066 7.00075,4.33721 C5.95799,4.94042 5.03373,5.72685 4.27237,6.65258 C3.92156,7.07914 3.29138,7.14054 2.86482,6.78972 C2.43827,6.43891 2.37687,5.80873 2.72769,5.38217 C3.64015,4.27272 4.74805,3.3298 5.9993,2.606 C6.47736,2.32945 7.08909,2.49282 7.36563,2.97088 Z" id="形状" fill="#09244B"></path>
            </g>
        </g>
    </g>
</svg>

<svg xmlns="http://www.w3.org/2000/svg" width="24" height="24"><g fill="none" fill-rule="nonzero"><path d="M24 0v24H0V0h24ZM12.593 23.258l-.011.002-.071.035-.02.004-.014-.004-.071-.035c-.01-.004-.019-.001-.024.005l-.004.01-.017.428.005.02.01.013.104.074.015.004.012-.004.104-.074.012-.016.004-.017-.017-.427c-.002-.01-.009-.017-.017-.018Zm.265-.113-.013.002-.185.093-.01.01-.003.011.018.43.005.012.008.007.201.093c.012.004.023 0 .029-.008l.004-.014-.034-.614c-.003-.012-.01-.02-.02-.022Zm-.715.002a.023.023 0 0 0-.027.006l-.006.014-.034.614c0 .012.007.02.017.024l.015-.002.201-.093.01-.008.004-.011.017-.43-.003-.012-.01-.01-.184-.092Z"/><path fill="#09244B" d="M12 4a9 9 0 1 1 0 18 9 9 0 0 1 0-18Zm0 4a1 1 0 0 0-.993.883L11 9v3.986a.998.998 0 0 0 .202.617l.09.104 2.106 2.105a1 1 0 0 0 1.498-1.32l-.084-.094L13 12.586V9a1 1 0 0 0-1-1Zm6-5.394a12.054 12.054 0 0 1 3.272 2.776 1 1 0 0 1-1.544 1.27 10.053 10.053 0 0 0-2.729-2.315 1 1 0 1 1 1.002-1.731Zm-10.634.365A1 1 0 0 1 7 4.337a10.053 10.053 0 0 0-2.729 2.316 1 1 0 1 1-1.544-1.27 12.053 12.053 0 0 1 3.271-2.777 1 1 0 0 1 1.367.365Z"/></g></svg>
